X:1
T:Cum esset desponsata
T:Cum esset desponsata
T:Heinrich Isaac
C:Heinrich Isaac
%%score [ 1 2 3 4 ]
L:1/8
Q:1/4=120
M:2/2
K:C
V:1 alto1 nm="Soprano"
V:2 alto nm="Alto"
V:3 tenor nm="Tenor"
V:4 bass nm="Bass"
V:1
 G8 x8 | G4 G4 | F4 E4 | D4 E2 (G2 | G2)"^#" F2 G4 | z4 G4 | G4 A4 | G4 F4 | z2 G2 (A3 B) | %9
w: |Cum es-|* set,|cum es- *|* * set|de-|spon- sa-|* ta|ma- ter *|
 c4 B2 (A2 | A)G G4"^#" F2 | G4 A4 | A4 G4 | F4 E4 | F2 G4"^#" F2 | G4 z4 | G4 G4 | c4 B4 | %18
w: Je- * *||su Ma-|ri- *|a _|Jo- * *|seph,|an- te|_ _|
 c2 d4 c2 | d4 z4 | d4 c4 | B4 G2 (A2 | A)G F4 E2 | F4 z2 F2 | G4 A4 | A4 B4 | c4 B4 | A4 G4 | %28
w: |quam|con- *|ve- ni- *||rent in-|ven- ta|est _|in _|u- te-|
 A4 G4 | F4 E4 | F2 G4"^#" F2 | G4 G4 | z2 G2 G4 | F4 D3 E | F4 z4 | z2 F2 G4 | A4 G4 | z2 A4 (G2 | %38
w: |ro _|ha- * *|* bens,|quod e-||nim|in e-|* a|na- *|
 G2) F2 G2 (A2 | A2) G2 A4 | z2 A4 G2 | A2 B2 c3 B | AG A4 (G2 | G2)"^#" F2 G4 | z4 A4 | %45
w: |* tum est|de Spi-|ri- tu San- *||* * cto.|Al-|
 B2 c2 c3 B/A/ | G2 A2 B2 (G2 | G2)"^#" F2 G4 | z2 E2 F4 | G2 A4 (G2 | G2)"^#" F2 (G4 | G8) |] %52
w: le- lu- ia, _ _|_ _ _ _||al- le-|lu- * *|* * ia.||
V:2
 G8 x8 | G,4 G,4 | A,4 A,4 | z2 D2 C2 (D2 | D)C A,2 B,2 G,2 | D4 E2 (D2 | D2) CB, A,4 | %7
w: |Cum es-|* set,|cum es- *|* * * * set,|cum es- *|* * * set|
 z2 G,2 A,2 (D2 | D2) E2 F4 | z2 F2 D2 F2 | G2 E2 D4 | z2 D3 C A,2 | C2 D2 B,4 | A,3 B, CD E2 | %14
w: de- spon- sa-|* * ta|de- spon- sa-|* * ta|Ma- * *|ri- a ma-|ter _ _ _ _|
 D2 C2 D4 | B,3 C D2 C2 | E4 z2 D2 | E2 F2 G3 F | E2 D2 E4 | F2 G2 E2 F2 | D2 G4"^#" F2 | %21
w: _ Je- su,|ma- * ter Je-|su, Ma-|ri- a ma- *|ter Je- *||su Jo- *|
 G4 z2 E2 | F2 D2 C4 | A,2 A,4 G,F, | C8 | z4 (G4 | G4) G4 | F4 E4 | F4 E4 | D4 E4 | D8 | %31
w: seph an-|te quam con-|ve- ni- * *|rent|in-|* ven-|ta _|est _|in _|u-|
 B,3 C D2 (E2 | E)D D4 C2 | D2 A,2 B,4 | A,2 D2 B,2 C2 | D8 | z4 z2 G2 | E2 F4 E2 | D3 C B,2 A,2 | %39
w: * * * te-|* ro ha- *|bens de- Spi-|ri- tu San- *|cto|quod|e- nim na-||
 B,4 A,4 | z2 F2 F2 D2 | F2 F2 G4 | E2 F2 D2 C2 | D4 z2 (D2 | D2) E2 F4 | G2 E2 F3 E | %46
w: tum est|de Spi- ri-|tu San- cto,|San- * * *|cto, de|* Spi- ri-|tu San- cto. _|
 DC E3 D (D2 | D2) C2 D3 C/B,/ | A,4 z2 D2 | C2 F3 D C2 | D4 (D4 | D8) |] %52
w: _ _ _ _ _||* Al-|le- lu- * *|* ia.||
V:3
 z8 D8 | z4 D4 | D4 C4 | B,3 C A,2 G,2 | A,4 (G,4 | G,4) z4 | z4 z2 (C2 | C2) C2 D2 A,2 | %8
w: |Cum|es- *||* set||de-|* spon- sa- ta|
 B,4 A,2 (C2 | C)B, A,2 G,2 A,2 | B,2 C2 A,4 | G,4 z4 | z4 D4 | D4 C3 B, | A,2 G,2 A,4 | G,4 G,4 | %16
w: ma- ter Je-|||su|Ma-|ri- * *|a _ Jo-|seph, an-|
 G,2 C4"^b" B,2 | C4 D4 | z8 | D4 C4 | B,2 G,2 A,4 | G,3 A, B,2 C2 | A,2 _B,2 G,4 | F,4 z2 (F2 | %24
w: te quam _|_ _||con- *|ve- ni- rent|an- * te quam|con- ve- ni-|rent in-|
 F2) E2 F3 E | D2 C2 D4 | C4 z2 E2 | A,2 D2 B,2 C2 | A,2 _B,2 G,2 C2 | A,2 _B,2 G,2 C2 | %30
w: * ven- * *|* * ta|est in|u- te- ro ha-|bens de Spi- ri-|tu San- cto, San-|
"^b" B,2 A,G, A,4 | G,4 z4 | z8 | z8 | z2 F,2 G,4 | A,4 G,4 | z2 C4 B,2 | A,2 C4 B,2 | %38
w: |cto|||quod e-|* nim|na- tum|est de Spi-|
 A,4 G,2 F,2 | G,4 D,4 | z2 D2 D2 B,2 | C2 D2 E3 D | CB, C2 G,4 | A,4 G,4 | B,4 C2 (D2 | %45
w: ri- tu San-|* cto,|de Spi- ri-|tu San- * *||cto, _|de Spi- ri-|
 D2) CB, A,4 | B,2 C2 G,2 B,2 | A,4 z2 G,2 | C4 D4 | E2 C3 B, C2 | A,4 (G,4 | G,8) |] %52
w: * tu _ San-|cto. Al- le- lu-|ia, al-|le- lu-|ia, al- le- lu-|* ia.||
V:4
 G,,16 | G,,8 | D,4 A,,4 | B,,4 C,2 G,,2 | D,4 G,,4 | z4 z2 (G,2 | G,4) F,4 | E,4 D,4 | G,4 F,4 | %9
w: |Cum|es- *||* set|de-|* spon-|sa- *|* ta|
 z2 F,2 G,2 F,2 | E,2 C,2 D,4 | G,,2 G,4 F,E, | F,4 G,4 | D,4 z2 A,,2 | D,2 E,2 D,4 | %15
w: ma- ter Je-|su Ma- ri-|a, Ma- ri- *||a, Ma-|ri- a Jo-|
 G,,3 A,, B,,2 (C,2 | C,)D,E,F, G,2 _B,2 | A,4 G,4 | z2 D,2 A,4 | D,2 G,2 A,2 F,2 | G,4 z4 | %21
w: seph, an- te quam|* * * * con- ve-|ni- rent|in- ven-|ta, in- ven- ta|est|
 z2 G,2 E,2 C,2 | F,2 _B,,2 C,4 | D,8 | C,4 z2 (F,2 | F,)G, A,2 G,4 | C,D,E,F, G,3 E, | %27
w: in u- te-|ro ha- *||bens in-|* ven- ta est|_ _ _ _ in u-|
 F,3 D, E,2 C,2 | D,2 _B,,2 C,4 | D,2 _B,,2 C,4 | D,8 | G,,4 z2 (G,2 | G,)F, E,D, E,4 | %33
w: te- ro, in u-|te- * ro,|u- te- ro|ha-|bens, in|* * u- * te-|
 D,4 z2 G,2 | D,2 F,2 E,4 | D,4 z2 (G,2 | G,2) F,2 G,4 | A,2 F,4 G,2 | D,4 z4 | z8 | %40
w: ro, u-|te- ro ha-|bens, in|* u- te-|ro ha- *|bens||
 z2 D,2 D,2 G,2 | F,2 D,2 C,4 | z2 F,2 G,2 E,2 | D,4 G,,4 | G,4 F,2 D,2 | G,2 A,2 F,4 | z8 | %47
w: de Spi- ri-|tu San- cto.|Al- le- lu-|ia, de|Spi- ri- tu|San- * cto.||
 z4 G,4 | A,2 A,2 D,4 | z2 F,2 D,2 E,2 | D,4 (G,,4 | G,,8) |] %52
w: Al-|le- lu- ia,|al- le- lu-|* ia.||

